X:240
T:The Hill of the Cranes
C:Erin Whitley
R:reel
M:4/4
L:1/8
K:G
GABG E2GE | DEGA BedB | AEE2 cEE2 | A2AG FDEF |
GABG E2GE | DEGA BedB | c2cB cgfg |1 ecAF G2 (3DEF :|2 ecAF G2Bd |:
gdd2 gdbd | gfed cBAG | EAAB A2AG | EAAG FDEF |
GDB,D G,B,DG | BG (3ABc dBGB | dg (3Bcd ecAF | AGGF | G2Bd :|
